assets/img/services/engenharia-eletrica.svg

<svg fill="none" height="188" viewBox="0 0 188 188" width="188" xmlns="http://www.w3.org/2000/svg"><path d="m94.3948 187.061c51.5602 0 93.3572-41.798 93.3572-93.3578 0-51.5599-41.797-93.357436-93.3572-93.357436-51.5599 0-93.35745 41.797536-93.35745 93.357436 0 51.5598 41.79755 93.3578 93.35745 93.3578z" fill="#e8d207"/><path d="m92.493 0c-51.1737.518653-92.493 42.0109-92.493 93.3575 0 51.3465 41.3193 92.8385 92.493 93.3575z" fill="#aa9f13"/><g fill="#fff"><path d="m108.225 81.0827v-15.9053h-8.2982v15.9053h-15.7324v-15.9053h-8.2984v17.1155l-7.6069 5.0136v26.1055l14.0035 12.621-.1728 44.604h19.0172l.692-43.394 14.695-15.214v-24.0309z"/><path d="m154.558 93.1846c.173-2.4204.346-5.0136.173-7.434 0-2.4204-.346-4.8408-.691-7.2611l-12.448-2.0747-4.322-11.929 8.298-9.5086c-2.593-4.1493-5.532-8.1255-8.99-11.5832l-11.41 5.7052-10.373-7.0884 1.21-12.6205c-4.322-1.9017-8.817-3.1119-13.658-3.9763l-5.8778 11.2375-12.6205.3458-6.3967-10.8917c-4.8408 1.0373-9.5086 2.7661-13.8307 4.8407l1.9017 12.6205-10.0273 7.607-11.5832-5.0137c-3.2848 3.6306-6.051 7.7798-8.2985 12.1019l8.8172 9.1628-3.6307 12.1019-12.4476 2.7662c-.1728 2.4204-.3458 5.0136-.1729 7.6069.1729 2.4204.3458 4.6679.6916 6.9153l12.6205 2.0747 4.1493 11.9292-8.4714 9.508c2.5933 4.15 5.5323 8.126 8.99 11.584l10.2001-5.014v-17.116c-10.7188-16.9422-7.7798-39.59 7.7798-53.2478 17.2884-15.2139 43.5671-13.485 58.6081 3.8034 13.658 15.3867 13.657 38.2074 1.037 53.5944v13.312l3.976-3.112 11.756 5.014c3.285-3.631 6.051-7.78 8.299-12.102l-8.99-8.99 3.458-12.1023z"/></g></svg>

<svg width="188" height="188" viewBox="0 0 188 188" fill="none" xmlns="http://www.w3.org/2000/svg">
<path d="M94.3948 187.061C145.955 187.061 187.752 145.263 187.752 93.7032C187.752 42.1433 145.955 0.345764 94.3948 0.345764C42.8349 0.345764 1.03735 42.1433 1.03735 93.7032C1.03735 145.263 42.8349 187.061 94.3948 187.061Z" fill="#E8D207"/>
<path d="M92.493 0C41.3193 0.518653 0 42.0109 0 93.3575C0 144.704 41.3193 186.196 92.493 186.715V0Z" fill="#AA9F13"/>
<path d="M108.225 81.0827V65.1774H99.9268V81.0827H84.1944V65.1774H75.896V82.2929L68.2891 87.3065V113.412L82.2926 126.033L82.1198 170.637H101.137L101.829 127.243L116.524 112.029V87.9981L108.225 81.0827Z" fill="white"/>
<path d="M154.558 93.1846C154.731 90.7642 154.904 88.171 154.731 85.7506C154.731 83.3302 154.385 80.9098 154.04 78.4895L141.592 76.4148L137.27 64.4858L145.568 54.9772C142.975 50.8279 140.036 46.8517 136.578 43.394L125.168 49.0992L114.795 42.0108L116.005 29.3903C111.683 27.4886 107.188 26.2784 102.347 25.414L96.4692 36.6515L83.8487 36.9973L77.452 26.1056C72.6112 27.1429 67.9434 28.8717 63.6213 30.9463L65.523 43.5668L55.4957 51.1738L43.9125 46.1601C40.6277 49.7907 37.8615 53.9399 35.614 58.262L44.4312 67.4248L40.8005 79.5267L28.3529 82.2929C28.1801 84.7133 28.0071 87.3065 28.18 89.8998C28.3529 92.3202 28.5258 94.5677 28.8716 96.8151L41.4921 98.8898L45.6414 110.819L37.17 120.327C39.7633 124.477 42.7023 128.453 46.16 131.911L56.3601 126.897V109.781C45.6413 92.8388 48.5803 70.191 64.1399 56.5332C81.4283 41.3193 107.707 43.0482 122.748 60.3366C136.406 75.7233 136.405 98.544 123.785 113.931V127.243L127.761 124.131L139.517 129.145C142.802 125.514 145.568 121.365 147.816 117.043L138.826 108.053L142.284 95.9507L154.558 93.1846Z" fill="white"/>
</svg>
